X:1
T:Title
%%score 1 ( 2 3 )
L:1/8
Q:1/4=97
M:3/4
K:F
V:1 treble nm="Grand Piano, Soprano"
V:2 bass nm="Choir Pad, Doers of the Word"
V:3 bass 
V:1
 C2 [CF]>[CF] [CF]2 | [CG]2 [CA]>[CA] [CA]2 | [EB]2 [Fc]3 [FA] | [CF][FA] [FA]2 [EG]2 | %4
w: By~James~McGranahan * * *||||
 C2 [CF]>[CF] [CF]2 | [CG]2 [CA]>[CA] [CA]2 | [EB]2 [Fc]3 [FA] | [CF][CA] [CG]2 [CF]2 | %8
w: ||||
 [FA][GB] [Ac]>[Bd] [Ac]2 | [FA][GB] [Ac]>[Bd] [Ac]2 | (3[FA][GB][Ac] [Bd]3 [Ac] | %11
w: |||
 [GB][FA] [FA]2 [EG]2 | C2 [CF]>[CF] [CF]2 | [CG]2 [CA]>[CA] [CA]2 | [EB]2 [Fc]3 [FA] | %15
w: ||||
 [CF][CA] [CG]2 [CF]2- | [CF]6 |] %17
w: ||
V:2
 C,2 [A,,F,]>[A,,F,] [A,,F,]2 | [C,E,]2 F,>F, F,2 | [G,C]2 [A,C]3 [F,C] | [F,A,][F,C] [C,C]2 CB, | %4
 [C,A,][B,,G,] [A,,F,]>[A,,F,] [A,,F,]2 | [C,E,]2 F,>F, F,2 | [G,C]2 [A,C]3 [F,C] | %7
 [F,A,][F,C] [C,B,]2 [F,A,]2 | F,2 F,>F, F,2 | F,2 F,>F, F,2 | F,2 [B,,F,]3 [C,F,] | %11
 [D,G,][F,C] [C,C]2 CB, | [D,A,][C,G,] [A,,F,]>[A,,F,] [A,,F,]2 | [C,E,]2 F,>F, F,2 | %14
 [G,C]2 [A,C]3 [F,C] | [F,A,][F,C] [C,B,]2 [F,A,]2- | [F,A,]6 |] %17
V:3
 x6 | x6 | x6 | z2 z2 C,2 | x6 | x6 | x6 | x6 | x6 | x6 | x6 | z2 z2 C,2 | x6 | x6 | x6 | x6 | %16
 x6 |] %17

